X:1
T:Sarabande
T:Sarabande
Z:Sarabande
%%score { 1 | ( 2 3 ) }
L:1/8
Q:1/4=96
M:3/4
K:A
V:1 treble nm="Piano" snm="Pno."
V:2 bass 
V:3 bass 
V:1
"^Andante" A3 F AB | c3 c de | f3 f gf | e3 e fe | d3 d ed | c3 d e2 | dc B/c/B/c/ BA | A6 :: %8
 G3 G AB | [FA]3 A Bc | [GB]3 B cd | c3 d e2 | dc B/c/B/c/ BA | A3 B c2 | BA G/A/G/A/ GF | %15
 [xA,CF]6 [A,CF]2 :| %16
V:2
 z2 A,4 | z2 G,4 | z2 A,2 B,2- | B,2 A,4- | A,2 G,4 | A,6 | A,4 G,2 | A,6 :: z2 C4 | z2 C4 | %10
 z2 E4 | A,6 | A,4 G,2 | A,6 | G,F,- F,2 ^E,2 | x2 [F,,F,]6 :| %16
V:3
 F,6 | E,6 | D,6 | C,6 | B,,6 | A,,3 B,, C,2 | D,2 E,4 | A,,6 :: C,6 | F,6 | G,6 | x2 A,,B,, C,2 | %12
 D,2 E,4 | x4 A,,2 | B,,2 C,4 | x8 :| %16

